img/logos/microsoft.svg

<?xml version="1.0" encoding="UTF-8" standalone="no"?>
<svg width="183px" height="39px" viewBox="0 0 183 39" version="1.1" xmlns="http://www.w3.org/2000/svg" xmlns:xlink="http://www.w3.org/1999/xlink">
    <!-- Generator: Sketch 45 (43475) - http://www.bohemiancoding.com/sketch -->
    <title>microsoft</title>
    <desc>Created with Sketch.</desc>
    <defs></defs>
    <g id="Page-1" stroke="none" stroke-width="1" fill="none" fill-rule="evenodd" opacity="0.597423041">
        <g id="Envoy-R2" transform="translate(-751.000000, -1116.000000)" fill-rule="nonzero" fill="#222222">
            <g id="Group-22" transform="translate(298.000000, 1005.000000)">
                <g id="microsoft" transform="translate(453.000000, 111.000000)">
                    <path d="M182.955046,17.6184706 L182.955046,14.4102353 L178.959487,14.4102353 L178.959487,9.42264706 L178.824981,9.46394118 L175.072065,10.6088824 L174.998086,10.6312941 L174.998086,14.4104118 L169.074656,14.4104118 L169.074656,12.3051176 C169.074656,11.3248235 169.294468,10.5746471 169.727721,10.0743529 C170.157966,9.58005882 170.773335,9.32876471 171.558252,9.32876471 C172.122473,9.32876471 172.706692,9.46129412 173.294629,9.72264706 L173.442055,9.78829412 L173.442055,6.40958824 L173.372678,6.38417647 C172.824209,6.18758824 172.078227,6.08858824 171.153493,6.08858824 C169.988063,6.08858824 168.929176,6.34147059 168.005681,6.84264706 C167.081655,7.34452941 166.354787,8.061 165.845608,8.97194118 C165.338199,9.88182353 165.08069,10.9327059 165.08069,12.0956471 L165.08069,14.4102353 L162.298523,14.4102353 L162.298523,17.6184706 L165.08069,17.6184706 L165.08069,31.1341765 L169.074656,31.1341765 L169.074656,17.6184706 L174.998086,17.6184706 L174.998086,26.2074706 C174.998086,29.7448235 176.671456,31.5374118 179.971651,31.5374118 C180.513926,31.5374118 181.084694,31.4740588 181.667498,31.35 C182.260744,31.2225882 182.664795,31.0953529 182.90266,30.9594706 L182.955223,30.9284118 L182.955223,27.6905294 L182.792753,27.7976471 C182.57595,27.9416471 182.306051,28.0593529 181.989606,28.1468824 C181.671746,28.236 181.406272,28.2806471 181.200618,28.2806471 C180.427558,28.2806471 179.85555,28.0729412 179.5007,27.663 C179.141779,27.2493529 178.959664,26.526 178.959664,25.5141176 L178.959664,17.6184706 L182.955046,17.6184706 Z M153.379309,28.2811765 C151.929644,28.2811765 150.786691,27.8018824 149.981243,26.8577647 C149.170839,25.9088824 148.76024,24.5560588 148.76024,22.8372353 C148.76024,21.0638824 149.170839,19.6759412 149.981597,18.7102941 C150.787575,17.751 151.919556,17.2641176 153.346744,17.2641176 C154.731632,17.2641176 155.834057,17.7291176 156.623753,18.6469412 C157.417343,19.5695294 157.820156,20.9463529 157.820156,22.7403529 C157.820156,24.5564118 157.441413,25.9514118 156.694546,26.8845882 C155.952812,27.8107059 154.837468,28.2811765 153.379309,28.2811765 L153.379309,28.2811765 Z M153.556822,14.0073529 C150.791115,14.0073529 148.594407,14.8154118 147.028111,16.4091176 C145.462877,18.003 144.669287,20.2087059 144.669287,22.9655294 C144.669287,25.584 145.44394,27.6901765 146.972008,29.2245882 C148.500075,30.7595294 150.579621,31.5370588 153.152417,31.5370588 C155.833349,31.5370588 157.986342,30.7177059 159.55193,29.1019412 C161.117341,27.4879412 161.9104,25.3030588 161.9104,22.6106471 C161.9104,19.9512353 161.166189,17.8293529 159.697764,16.3051765 C158.228632,14.7802941 156.162183,14.0073529 153.556822,14.0073529 L153.556822,14.0073529 Z M138.229776,14.0073529 C136.348451,14.0073529 134.792243,14.4871765 133.603451,15.4332353 C132.407402,16.3849412 131.800706,17.6331176 131.800706,19.1435294 C131.800706,19.9286471 131.931673,20.6260588 132.18936,21.2175882 C132.448639,21.8110588 132.849859,22.3335882 133.38293,22.7721176 C133.911931,23.2071176 134.728529,23.6627647 135.810601,24.1263529 C136.720291,24.4995882 137.398665,24.8152941 137.829618,25.0641176 C138.250837,25.308 138.54976,25.5531176 138.718602,25.7918824 C138.882664,26.0255294 138.965846,26.3452941 138.965846,26.7398824 C138.965846,27.8634706 138.121993,28.4101765 136.385617,28.4101765 C135.741577,28.4101765 135.006923,28.2760588 134.202183,28.0117059 C133.40316,27.7513497 132.649021,27.370074 131.966185,26.8812353 L131.800352,26.7626471 L131.800352,30.5968235 L131.861234,30.6250588 C132.426339,30.8851765 133.138871,31.1045294 133.978654,31.2771176 C134.816843,31.4498824 135.578399,31.5377647 136.23996,31.5377647 C138.281455,31.5377647 139.925446,31.0556471 141.125034,30.1039412 C142.332232,29.1457059 142.944061,27.8680588 142.944061,26.3054118 C142.944061,25.1781176 142.614696,24.2114118 141.965524,23.4317647 C141.320777,22.6584706 140.201716,21.9485294 138.640906,21.321 C137.397426,20.8233529 136.600828,20.4102353 136.272171,20.0931176 C135.955372,19.7867647 135.794495,19.3535294 135.794495,18.8048824 C135.794495,18.3185294 135.99307,17.9288824 136.400661,17.6133529 C136.811437,17.2962353 137.383268,17.1349412 138.100401,17.1349412 C138.765856,17.1349412 139.446708,17.2397647 140.123843,17.4451765 C140.800448,17.6505882 141.394755,17.9257059 141.890838,18.2622353 L142.054015,18.3734118 L142.054015,14.7363529 L141.991364,14.7095294 C141.533687,14.5138235 140.930176,14.3463529 140.197114,14.2104706 C139.467415,14.0754706 138.8055,14.0073529 138.229776,14.0073529 L138.229776,14.0073529 Z M121.388643,28.2811765 C119.939333,28.2811765 118.796025,27.8018824 117.990754,26.8577647 C117.180174,25.9088824 116.770282,24.5564118 116.770282,22.8372353 C116.770282,21.0638824 117.180705,19.6759412 117.991639,18.7102941 C118.79691,17.751 119.928714,17.2641176 121.356609,17.2641176 C122.740967,17.2641176 123.843392,17.7291176 124.633265,18.6469412 C125.427032,19.5695294 125.829667,20.9463529 125.829667,22.7403529 C125.829667,24.5564118 125.450748,25.9514118 124.703881,26.8845882 C123.962147,27.8107059 122.847334,28.2811765 121.388643,28.2811765 L121.388643,28.2811765 Z M121.566688,14.0073529 C118.800273,14.0073529 116.603388,14.8154118 115.037977,16.4091176 C113.472743,18.003 112.678622,20.2087059 112.678622,22.9655294 C112.678622,25.5850588 113.453806,27.6901765 114.981873,29.2245882 C116.509941,30.7595294 118.589309,31.5370588 121.162105,31.5370588 C123.842684,31.5370588 125.996208,30.7177059 127.561796,29.1019412 C129.126853,27.4879412 129.920266,25.3030588 129.920266,22.6106471 C129.920266,19.9512353 129.175877,17.8293529 127.707099,16.3051765 C126.237612,14.7802941 124.171517,14.0073529 121.566688,14.0073529 L121.566688,14.0073529 Z M106.615906,17.3064706 L106.615906,14.4102353 L102.67061,14.4102353 L102.67061,31.1338235 L106.615906,31.1338235 L106.615906,22.5790588 C106.615906,21.1244118 106.946687,19.9293529 107.599398,19.0267059 C108.243792,18.1348235 109.102512,17.6828824 110.150956,17.6828824 C110.506338,17.6828824 110.905256,17.7412941 111.337271,17.8568824 C111.764861,17.9717647 112.07458,18.0965294 112.257226,18.2278235 L112.423059,18.3476471 L112.423059,14.3816471 L112.359168,14.3542941 C111.991752,14.1986471 111.471955,14.1201176 110.814287,14.1201176 C109.822831,14.1201176 108.935617,14.4377647 108.175654,15.0631765 C107.508606,15.6128824 107.026506,16.3665882 106.657851,17.3064706 L106.615906,17.3064706 Z M95.6052882,14.0073529 C93.7952872,14.0073529 92.180852,14.3943529 90.8076441,15.1572353 C89.4316044,15.9218824 88.3674081,17.0135294 87.6433723,18.4016471 C86.9225222,19.7864118 86.5565222,21.4039412 86.5565222,23.2078235 C86.5565222,24.7879412 86.9113723,26.238 87.6127544,27.516 C88.3144903,28.7961176 89.3077166,29.7975882 90.565001,30.4921765 C91.8205155,31.1858824 93.2715957,31.5375882 94.8782437,31.5375882 C96.7531973,31.5375882 98.3540048,31.1638235 99.6374826,30.4267059 L99.6893385,30.3970588 L99.6893385,26.793 L99.5235058,26.9137059 C98.942118,27.336 98.2924149,27.6730588 97.5933337,27.9158824 C96.8960222,28.1585294 96.2603008,28.2811765 95.7028056,28.2811765 C94.1547389,28.2811765 92.9119671,27.7981765 92.0098868,26.8459412 C91.1058598,25.8924706 90.6474749,24.5535882 90.6474749,22.8688235 C90.6474749,21.1734706 91.1255048,19.8001765 92.0675832,18.7868824 C93.0068298,17.7765882 94.2519023,17.2641176 95.7679352,17.2641176 C97.0646867,17.2641176 98.3283424,17.7019412 99.5238598,18.5666471 L99.6893385,18.6864706 L99.6893385,14.889 L99.6358897,14.859 C99.186,14.6078824 98.5724014,14.4005294 97.8106683,14.2432941 C97.0521209,14.0864118 96.3102099,14.0073529 95.6052882,14.0073529 L95.6052882,14.0073529 Z M83.8393085,14.4104118 L79.8940126,14.4104118 L79.8940126,31.1338235 L83.8393085,31.1338235 L83.8393085,14.4104118 L83.8393085,14.4104118 Z M81.9070126,7.28611765 C81.2576634,7.28611765 80.6913191,7.50652941 80.2260319,7.94329412 C79.7587979,8.38129412 79.5218182,8.93276471 79.5218182,9.58358824 C79.5218182,10.2241765 79.7559662,10.7655882 80.2187756,11.1919412 C80.6785764,11.6170588 81.2466905,11.8325294 81.9071896,11.8325294 C82.5675116,11.8325294 83.1377495,11.6170588 83.6030368,11.1926471 C84.0713327,10.7655882 84.3088433,10.2243529 84.3088433,9.58358824 C84.3088433,8.95552941 84.0777041,8.40970588 83.6223279,7.96094118 C83.1673056,7.51305882 82.5899884,7.28611765 81.9070126,7.28611765 L81.9070126,7.28611765 Z M72.0632408,13.1765294 L72.0632408,31.1338235 L76.0895948,31.1338235 L76.0895948,7.79805882 L70.5169439,7.79805882 L63.4337466,25.1311765 L56.5599197,7.79805882 L50.7603772,7.79805882 L50.7603772,31.1336471 L54.544088,31.1336471 L54.544088,13.1747647 L54.6739932,13.1747647 L61.9325803,31.1338235 L64.7880174,31.1338235 L71.9333356,13.1765294 L72.0632408,13.1765294 L72.0632408,13.1765294 Z" id="Shape"></path>
                    <polygon id="Shape" points="18.5598104 18.5061176 0 18.5061176 0 0 18.5598104 0"></polygon>
                    <polygon id="Shape" points="39.0519168 18.5061176 20.4924603 18.5061176 20.4924603 0 39.0519168 0"></polygon>
                    <polygon id="Shape" points="18.5592795 38.9461765 0 38.9461765 0 20.4402353 18.5592795 20.4402353"></polygon>
                    <polygon id="Shape" points="39.0519168 38.9461765 20.4924603 38.9461765 20.4924603 20.4402353 39.0519168 20.4402353"></polygon>
                </g>
            </g>
        </g>
    </g>
</svg>

<svg width="183" height="39" xmlns="http://www.w3.org/2000/svg"><g fill="#222" fill-rule="nonzero" opacity=".597"><path d="M182.96 17.618V14.41h-3.996V9.422l-.134.041-3.753 1.145-.074.023v3.779h-5.923v-2.105c0-.98.22-1.73.653-2.231.43-.494 1.045-.746 1.83-.746.564 0 1.149.133 1.737.394l.147.066V6.409l-.07-.025c-.548-.197-1.294-.296-2.219-.296-1.165 0-2.224.253-3.147.754a5.374 5.374 0 0 0-2.16 2.13c-.508.91-.765 1.96-.765 3.123v2.315h-2.783v3.208h2.783v13.516h3.994V17.618h5.923v8.589c0 3.537 1.673 5.33 4.974 5.33.542 0 1.113-.064 1.695-.188.594-.127.998-.254 1.236-.39l.052-.031V27.69l-.162.107a2.801 2.801 0 0 1-.803.35 3.06 3.06 0 0 1-.79.133c-.773 0-1.345-.208-1.7-.618-.358-.413-.54-1.137-.54-2.149v-7.895h3.995zm-29.576 10.663c-1.45 0-2.593-.48-3.398-1.423-.81-.95-1.221-2.302-1.221-4.02 0-1.774.41-3.162 1.221-4.128.806-.96 1.938-1.446 3.365-1.446 1.385 0 2.488.465 3.277 1.383.794.922 1.197 2.3 1.197 4.093 0 1.816-.379 3.211-1.126 4.144-.742.927-1.857 1.397-3.315 1.397zm.178-14.274c-2.766 0-4.963.808-6.53 2.402-1.564 1.594-2.358 3.8-2.358 6.556 0 2.619.775 4.725 2.303 6.26 1.528 1.534 3.607 2.312 6.18 2.312 2.681 0 4.834-.82 6.4-2.435 1.565-1.614 2.358-3.8 2.358-6.492 0-2.659-.744-4.78-2.212-6.305-1.47-1.525-3.536-2.298-6.141-2.298zm-15.327 0c-1.882 0-3.438.48-4.627 1.426-1.196.952-1.802 2.2-1.802 3.71 0 .785.13 1.483.388 2.074.26.594.66 1.116 1.194 1.555.529.435 1.345.89 2.427 1.354.91.373 1.589.689 2.02.938.42.244.72.489.888.728.165.233.248.553.248.948 0 1.123-.844 1.67-2.58 1.67-.645 0-1.38-.134-2.184-.399a8.21 8.21 0 0 1-2.236-1.13l-.166-.119v3.834l.061.029c.565.26 1.278.48 2.118.652.838.173 1.6.26 2.26.26 2.042 0 3.686-.482 4.886-1.433 1.207-.959 1.819-2.236 1.819-3.799 0-1.127-.33-2.094-.979-2.873-.644-.774-1.763-1.484-3.324-2.111-1.244-.498-2.04-.911-2.369-1.228-.317-.307-.478-.74-.478-1.288 0-.487.199-.876.607-1.192.41-.317.982-.478 1.7-.478.665 0 1.346.105 2.023.31.676.205 1.27.48 1.767.817l.163.111v-3.637l-.063-.027c-.457-.195-1.061-.363-1.794-.499a10.984 10.984 0 0 0-1.967-.203zm-16.841 14.274c-1.45 0-2.593-.48-3.398-1.423-.811-.95-1.22-2.302-1.22-4.02 0-1.774.41-3.162 1.22-4.128.806-.96 1.938-1.446 3.366-1.446 1.384 0 2.486.465 3.276 1.383.794.922 1.197 2.3 1.197 4.093 0 1.816-.38 3.211-1.126 4.144-.742.927-1.857 1.397-3.315 1.397zm.178-14.274c-2.767 0-4.964.808-6.53 2.402-1.564 1.594-2.359 3.8-2.359 6.556 0 2.62.776 4.725 2.304 6.26 1.528 1.534 3.607 2.312 6.18 2.312 2.68 0 4.834-.82 6.4-2.435 1.565-1.614 2.358-3.8 2.358-6.492 0-2.659-.744-4.78-2.213-6.305-1.47-1.525-3.536-2.298-6.14-2.298zm-14.951 3.3V14.41h-3.946v16.724h3.946v-8.555c0-1.455.33-2.65.983-3.552.644-.892 1.503-1.344 2.552-1.344.355 0 .754.058 1.186.174.428.115.737.24.92.37l.166.12v-3.965l-.064-.028c-.368-.155-.887-.234-1.545-.234a4.05 4.05 0 0 0-2.639.943c-.667.55-1.149 1.304-1.517 2.243h-.042zm-11.011-3.3c-1.81 0-3.425.387-4.798 1.15a7.76 7.76 0 0 0-3.164 3.244c-.721 1.385-1.087 3.003-1.087 4.807 0 1.58.355 3.03 1.056 4.308a7.413 7.413 0 0 0 2.952 2.976c1.256.694 2.707 1.045 4.313 1.045 1.875 0 3.476-.373 4.76-1.11l.051-.03v-3.604l-.165.12a7.425 7.425 0 0 1-1.93 1.003c-.698.242-1.334.365-1.891.365-1.548 0-2.79-.483-3.693-1.435-.904-.954-1.362-2.293-1.362-3.977 0-1.696.478-3.069 1.42-4.082.939-1.01 2.184-1.523 3.7-1.523 1.297 0 2.56.438 3.756 1.302l.165.12V14.89l-.053-.03c-.45-.251-1.063-.459-1.825-.616-.759-.157-1.5-.236-2.206-.236zm-11.766.403h-3.946v16.723h3.946V14.41zM81.91 7.286c-.65 0-1.215.22-1.68.657-.468.438-.705.99-.705 1.64 0 .64.234 1.182.697 1.609.46.425 1.028.64 1.688.64.66 0 1.231-.215 1.696-.64.469-.427.706-.968.706-1.609 0-.628-.231-1.174-.687-1.622-.455-.448-1.032-.675-1.715-.675zm-9.844 5.89v17.957h4.027V7.797H70.52L63.438 25.13 56.564 7.797h-5.8v23.336h3.784V13.174h.13l7.259 17.96h2.855l7.146-17.958h.13zM18.56 18.506H0V0h18.56zM39.052 18.506h-18.56V0h18.56zM18.559 38.946H0V20.44h18.559zM39.052 38.946h-18.56V20.44h18.56z"/></g></svg>
